X: 1
T: Gan Ainm
M: 4/4
L: 1/8
R: reel
K: Gmaj
|: d~e2d edBA | G2BG AGEG | G2b2 agea |1 gedB edB2 :|2 gedB G3z ||
|: d~G3 BABd | ~g3a baga | bage d2Bf | gedB B A3 :|
